X:1
T:Joyfully Sing
T:John Robson Sweney
T:Joyfully Sing
T:Public Domain
T:Public Domain
C:John Robson Sweney
Z:Public Domain
%%score ( 1 2 ) ( 3 4 )
L:1/8
M:3/4
K:Eb
V:1 treble 
V:2 treble 
V:3 bass 
V:4 bass 
V:1
"^Duet" [GB]2"^Cheerful" [^F=A]2 [GB]2 | [Ge]3 [GB] [EG]2 | [GB]2 [Ac]2 [EG]2 | [FA]6 | %4
w: 1.~Sing with a|tune- ful song,|sing and a-|dore|
w: 2.~Sing with a|grate- ful heart,|hal- low His|name,|
w: 3.~Sing with a|trust- ing heart,|look- ing a-|way|
 [FA]2 [=EG]2 [FA]2 | [Bd]3 [Ac] [GB]2 | [FA]2 [GB]2 [DF]2 | [EG]6 | [GB]2 [^F=A]2 [GB]2 | %9
w: Je- sus the|Ho- ly One,|king ev- er-|more;|He is the|
w: All He has|done for us,|glad- ly pro-|claim;|Tell how each|
w: Up to the|bright- er land,|bright- er than|day;|Sing with a|
 [Ge]3 [Af] [Ge]2 | [GB]2 [FA]2 [EG]2 | [Ec]6 | [Ec]2 [Ec]2 [Ad]2 | [Ge]3 [GB] [EG]2 | %14
w: de- sert rock,|there we may|hide,|Un- der His|might- y shade|
w: prom- ise sweet|cheers us a-|long,|Praise we the|Lord of lords,|
w: glow- ing heart|filled with His|love,|Sing till our|hap- py souls|
 [DF]2 [DG]2 [DF]2 | E4 z2 ||"^Refrain" G2 F2 E2 | B6- | D2 E2 F2 | [EB]4 z2 | A2 G2 F2 | c6- | %22
w: safe we a-|bide.|||||||
w: Fount- ain of|song.|ful- ly sing,|sing,||Joy-|ful- ly sing,|ter-|
w: an- chor a-|bove.|||||||
 =E2 F2 G2 | [Fc]4 z2 | d2 c2 B2 | e6- | G2 G2 A2 | [Ge]6 | [EG]2 [DF]2 [EG]2 | [DB]3 [FA] [FA]2 | %30
w: ||||||||
w: |ni-|ty, Hon- or|Thee,||Now|and for- ev-|er be, Je-|
w: ||||||||
 [FA]2 [=EG]2 [FA]2 | [Ac]3 [GB] [GB]2 | [GB]2 [Ec]2 [Ad]2 | [Ge]3 [GB] [EG]2 | [DF]2 [DG]2 [DF]2 | %35
w: |||||
w: sus our King.|||||
w: |||||
 E6 |] %36
w: |
w: |
w: |
V:2
 x6 | x6 | x6 | x6 | x6 | x6 | x6 | x6 | x6 | x6 | x6 | x6 | x6 | x6 | x6 | E4 x2 || G2 F2 E2 | %17
w: |||||||||||||||||
w: |||||||||||||||Joy-|Joy- ful- ly|
 x6 | B6- | x6 | A2 G2 F2 | x6 | c6- | x6 | d2 c2 B2 | x6 | e6- | x6 | x6 | x6 | x6 | x6 | x6 | %33
w: ||||||||||||||||
w: |||Light of e-||||and praise to|||||||||
 x6 | x6 | E6 |] %36
w: |||
w: |||
V:3
 E,2 [G,B,]2 [G,B,]2 | E,2 [G,B,]2 [G,B,]2 | E,2 [G,B,]2 [G,B,]2 | (B,,2 B,2 B,2) | B,,2 B,2 B,2 | %5
w: ~ ~ ~|~ ~ ~|~ ~ ~|~ * *|~ ~ ~|
 B,,2 B,2 B,2 | B,,2 B,2 B,2 | E,2 [G,B,]2 [G,B,]2 | E,2 [G,B,]2 [G,B,]2 | E,2 [G,B,]2 [G,B,]2 | %10
w: ~ ~ ~|~ ~ ~|~ ~ ~|~ ~ ~|Joy- ful- ly|
 E,2 [G,B,]2 [G,B,]2 | (A,,2 [E,A,]2 [E,A,]2) | [A,,A,]2 A,2 [F,B,]2 | [E,B,]3 [E,B,] [E,B,]2 | %14
w: Joy- ful- ly|Joy- * *|ly sing, *||
 [B,,A,]2 [B,,B,]2 [B,,A,]2 | [E,G,]4 z2 || z6 | z6 | [B,,F,]2 [B,,G,]2 [B,,A,]2 | [E,G,]4 z2 | %20
w: ||||||
 z6 | z6 | [C,G,]2 [C,A,]2 [C,B,]2 | [F,A,]4 z2 | z6 | z6 | [E,B,]2 [E,B,]2 [E,C]2 | [E,B,]6 | %28
w: ||||||||
 [E,B,]2 [A,B,]2 [G,B,]2 | [G,B,]3 [B,,B,] [B,,B,]2 | [B,,B,]2 [B,,B,]2 [B,,D]2 | %31
w: |||
 [E,E]3 [E,E] [E,E]2 | [E,B,]2 A,2 [F,B,]2 | [E,B,]3 [E,B,] [E,B,]2 | [B,,A,]2 [B,,B,]2 [B,,A,]2 | %35
w: ||||
 [E,G,]6 |] %36
w: |
V:4
 E,2 x4 | E,2 x4 | E,2 x4 | B,,2 B,2 B,2 | B,,2 B,2 B,2 | B,,2 B,2 B,2 | B,,2 B,2 B,2 | E,2 x4 | %8
w: ~|~|~|~ ~ ~|~ ~ ~|~ ~ ~|~ ~ ~|~|
 E,2 x4 | E,2 x4 | E,2 x4 | A,,2 x4 | x2 A,2 x2 | x6 | x6 | x6 || x6 | x6 | x6 | x6 | x6 | x6 | %22
w: ~|sing,|sing,|ful-|||||||||||
 x6 | x6 | x6 | x6 | x6 | x6 | x6 | x6 | x6 | x6 | x2 A,2 x2 | x6 | x6 | x6 |] %36
w: ||||||||||||||

